X:1
T:Gentle Annie
T:Gentle Annie
T:Stephen Foster
C:Stephen Foster
L:1/8
M:4/4
K:G
V:1 treble 
V:1
 GA | G2 G2 A2 GA | (B2 g4) fe | d2 dd edBG | A6 BA | G2 G2 A2 GA | (B2 g4) fe | d2 Bd dcAA | G6 || %9
 d2 | e2 a2 g2 fe | d2 A6 | dgBc BAGB | A6 BA | G2 G2 A2 GA | (B2 g4) fe | d2 Bd dcAA | G6 || %18

